decagram-outline.svg

<svg fill="currentColor" viewBox="0 0 24 24"><path d="m23 12-2.44 2.78.34 3.68-3.61.82-1.89 3.18L12 21l-3.4 1.47-1.89-3.18-3.61-.82.34-3.69L1 12l2.44-2.79-.34-3.68 3.61-.81L8.6 1.54 12 3l3.4-1.46 1.89 3.18 3.61.82-.34 3.68zm-2.67 0L18.5 9.89l.24-2.79L16 6.5l-1.42-2.43L12 5.18 9.42 4.07 8 6.5l-2.74.59.24 2.79L3.67 12l1.83 2.1-.24 2.8 2.74.6 1.42 2.43L12 18.81l2.58 1.11L16 17.5l2.74-.61-.24-2.79z"/></svg>

<svg  viewBox="0 0 24 24" fill="currentColor"><path  d="M23,12L20.56,14.78L20.9,18.46L17.29,19.28L15.4,22.46L12,21L8.6,22.47L6.71,19.29L3.1,18.47L3.44,14.78L1,12L3.44,9.21L3.1,5.53L6.71,4.72L8.6,1.54L12,3L15.4,1.54L17.29,4.72L20.9,5.54L20.56,9.22L23,12M20.33,12L18.5,9.89L18.74,7.1L16,6.5L14.58,4.07L12,5.18L9.42,4.07L8,6.5L5.26,7.09L5.5,9.88L3.67,12L5.5,14.1L5.26,16.9L8,17.5L9.42,19.93L12,18.81L14.58,19.92L16,17.5L18.74,16.89L18.5,14.1L20.33,12Z"/></svg>
